icons/tokens/0x0d438F3b5175Bebc262bF23753C1E53d03432bDE/logo.svg

<svg width="32" height="32" viewBox="0 0 32 32" fill="none" xmlns="http://www.w3.org/2000/svg">
<path fill-rule="evenodd" clip-rule="evenodd" d="M32 16C32 7.17152 24.8285 0 16 0C7.17152 0 0 7.17152 0 16C0 24.8285 7.17152 32 16 32C24.8285 32 32 24.8285 32 16Z" fill="url(#paint0_linear)"/>
<path fill-rule="evenodd" clip-rule="evenodd" d="M13.5398 10.6426C12.2109 9.59457 11.6915 7.81953 12.2464 6.22081C12.801 4.62177 14.3075 3.54945 16 3.54945C17.6925 3.54945 19.199 4.62177 19.7536 6.22081C20.3085 7.81953 19.7891 9.59457 18.4602 10.6426C17.9392 11.1594 17.7344 11.9152 17.9235 12.6243C18.1126 13.3334 18.6666 13.8874 19.3757 14.0765C20.0848 14.2656 20.8406 14.0608 21.3574 13.5398C22.4054 12.2109 24.1805 11.6915 25.7792 12.2464C27.3782 12.801 28.4506 14.3075 28.4506 16C28.4506 17.6925 27.3782 19.199 25.7792 19.7536C24.1805 20.3085 22.4054 19.7891 21.3574 18.4602C20.8406 17.9392 20.0848 17.7344 19.3757 17.9235C18.6666 18.1126 18.1126 18.6666 17.9235 19.3757C17.7344 20.0848 17.9392 20.8406 18.4602 21.3574C19.7891 22.4054 20.3085 24.1805 19.7536 25.7792C19.199 27.3782 17.6925 28.4506 16 28.4506C14.3075 28.4506 12.801 27.3782 12.2464 25.7792C11.6915 24.1805 12.2109 22.4054 13.5398 21.3574C14.0608 20.8406 14.2656 20.0848 14.0765 19.3757C13.8874 18.6666 13.3334 18.1126 12.6243 17.9235C11.9152 17.7344 11.1594 17.9392 10.6426 18.4602C9.59456 19.7891 7.81952 20.3085 6.2208 19.7536C4.62176 19.199 3.54944 17.6925 3.54944 16C3.54944 14.3075 4.62176 12.801 6.2208 12.2464C7.81952 11.6915 9.59456 12.2109 10.6426 13.5398C11.1594 14.0608 11.9152 14.2656 12.6243 14.0765C13.3334 13.8874 13.8874 13.3334 14.0765 12.6243C14.2656 11.9152 14.0608 11.1594 13.5398 10.6426ZM18.2832 7.52257C18.2832 6.26305 17.2598 5.2397 16 5.2397C14.7402 5.2397 13.7168 6.26305 13.7168 7.52257C13.7168 8.78241 14.7402 9.80578 16 9.80578C17.2598 9.80578 18.2832 8.78241 18.2832 7.52257ZM24.4774 13.7168C25.737 13.7168 26.7603 14.7402 26.7603 16C26.7603 17.2599 25.737 18.2832 24.4774 18.2832C23.2176 18.2832 22.1942 17.2599 22.1942 16C22.1942 14.7402 23.2176 13.7168 24.4774 13.7168ZM18.2832 24.4774C18.2832 23.2176 17.2598 22.1942 16 22.1942C14.7402 22.1942 13.7168 23.2176 13.7168 24.4774C13.7168 25.737 14.7402 26.7603 16 26.7603C17.2598 26.7603 18.2832 25.737 18.2832 24.4774ZM7.52257 13.7168C8.78241 13.7168 9.80577 14.7402 9.80577 16C9.80577 17.2599 8.78241 18.2832 7.52257 18.2832C6.26305 18.2832 5.23969 17.2599 5.23969 16C5.23969 14.7402 6.26305 13.7168 7.52257 13.7168Z" fill="white"/>
<path fill-rule="evenodd" clip-rule="evenodd" d="M7.52257 17.5059C8.35361 17.5059 9.02849 16.8307 9.02849 16C9.02849 15.1693 8.35361 14.4941 7.52257 14.4941C6.69185 14.4941 6.01697 15.1693 6.01697 16C6.01697 16.8307 6.69185 17.5059 7.52257 17.5059Z" fill="white"/>
<path fill-rule="evenodd" clip-rule="evenodd" d="M16 9.02848C16.8307 9.02848 17.5059 8.3536 17.5059 7.52256C17.5059 6.69184 16.8307 6.01696 16 6.01696C15.1693 6.01696 14.4941 6.69184 14.4941 7.52256C14.4941 8.3536 15.1693 9.02848 16 9.02848Z" fill="white"/>
<path fill-rule="evenodd" clip-rule="evenodd" d="M24.4774 17.5059C25.3082 17.5059 25.983 16.8307 25.983 16C25.983 15.1693 25.3082 14.4941 24.4774 14.4941C23.6464 14.4941 22.9715 15.1693 22.9715 16C22.9715 16.8307 23.6464 17.5059 24.4774 17.5059Z" fill="white"/>
<path fill-rule="evenodd" clip-rule="evenodd" d="M16 25.983C16.8307 25.983 17.5059 25.3082 17.5059 24.4774C17.5059 23.6464 16.8307 22.9715 16 22.9715C15.1693 22.9715 14.4941 23.6464 14.4941 24.4774C14.4941 25.3082 15.1693 25.983 16 25.983Z" fill="white"/>
<defs>
<linearGradient id="paint0_linear" x1="16" y1="0" x2="16" y2="32" gradientUnits="userSpaceOnUse">
<stop stop-color="#3E3E3E"/>
<stop offset="1" stop-color="#2D2D2D"/>
</linearGradient>
</defs>
</svg>

<svg fill="none" viewBox="0 0 32 32"><path fill="url(#paint0_linear)" fill-rule="evenodd" d="M32 16c0-8.828-7.172-16-16-16S0 7.172 0 16s7.172 16 16 16 16-7.172 16-16z" clip-rule="evenodd"/><path fill="#fff" fill-rule="evenodd" d="M13.54 10.643a3.973 3.973 0 114.92 0 2.048 2.048 0 102.897 2.897 3.973 3.973 0 110 4.92 2.048 2.048 0 10-2.897 2.897 3.973 3.973 0 11-4.92 0 2.048 2.048 0 10-2.897-2.897 3.973 3.973 0 110-4.92 2.048 2.048 0 102.897-2.897zm4.743-3.12A2.285 2.285 0 0016 5.24a2.285 2.285 0 00-2.283 2.283A2.285 2.285 0 0016 9.806a2.285 2.285 0 002.283-2.283zm6.194 6.194A2.285 2.285 0 0126.76 16a2.285 2.285 0 01-2.283 2.283A2.285 2.285 0 0122.194 16a2.285 2.285 0 012.283-2.283zm-6.194 10.76A2.285 2.285 0 0016 22.194a2.285 2.285 0 00-2.283 2.283A2.285 2.285 0 0016 26.76a2.285 2.285 0 002.283-2.283zm-10.76-10.76A2.285 2.285 0 019.806 16a2.285 2.285 0 01-2.283 2.283A2.285 2.285 0 015.24 16a2.285 2.285 0 012.283-2.283z" clip-rule="evenodd"/><path fill="#fff" fill-rule="evenodd" d="M7.523 17.506a1.507 1.507 0 000-3.012 1.507 1.507 0 000 3.012zM16 9.028a1.507 1.507 0 000-3.011 1.507 1.507 0 000 3.011zm8.477 8.478a1.507 1.507 0 000-3.012 1.507 1.507 0 000 3.012zM16 25.983a1.507 1.507 0 000-3.012 1.507 1.507 0 000 3.012z" clip-rule="evenodd"/><defs><linearGradient id="paint0_linear" x1="16" x2="16" y1="0" y2="32" gradientUnits="userSpaceOnUse"><stop stop-color="#3E3E3E"/><stop offset="1" stop-color="#2D2D2D"/></linearGradient></defs></svg>
